docs/static/images/logo.svg

<svg width="1063" height="302" viewBox="0 0 1063 302" fill="none" xmlns="http://www.w3.org/2000/svg">
<path d="M130.819 112.028L100.064 142.781C95.6467 147.198 95.6467 154.359 100.064 158.776L130.819 189.529C135.236 193.946 142.398 193.946 146.815 189.529L177.571 158.776C181.988 154.359 181.988 147.198 177.571 142.781L146.815 112.028C142.398 107.611 135.236 107.611 130.819 112.028Z" fill="#1792FF"/>
<path d="M138.809 270.699C130.913 270.727 123.091 269.187 115.796 266.168C108.501 263.149 101.878 258.712 96.311 253.113L89.7729 246.575L117.658 218.693L124.196 225.23C128.061 229.094 133.303 231.264 138.768 231.264C144.233 231.264 149.474 229.094 153.34 225.23L213.212 165.362C217.067 161.496 219.231 156.259 219.231 150.8C219.231 145.34 217.067 140.103 213.212 136.237L183.317 106.377L211.202 78.4938L241.146 108.436C252.387 119.702 258.7 134.967 258.7 150.881C258.7 166.796 252.387 182.06 241.146 193.327L181.257 253.195C175.691 258.774 169.073 263.194 161.787 266.199C154.5 269.204 146.69 270.733 138.809 270.699Z" fill="url(#paint0_linear_7_126)"/>
<path d="M66.3666 223.187L36.4875 193.245C30.9117 187.672 26.4886 181.055 23.4709 173.772C20.4531 166.489 18.8999 158.683 18.8999 150.8C18.8999 142.916 20.4531 135.11 23.4709 127.827C26.4886 120.545 30.9117 113.927 36.4875 108.354L96.3601 48.4862C101.934 42.9108 108.551 38.4881 115.835 35.4706C123.118 32.4531 130.925 30.9 138.809 30.9C146.692 30.9 154.499 32.4531 161.783 35.4706C169.066 38.4881 175.684 42.9108 181.257 48.4862L187.795 55.0238L159.91 82.9067L153.372 76.3691C149.507 72.5056 144.266 70.3353 138.8 70.3353C133.335 70.3353 128.094 72.5056 124.229 76.3691L64.3561 136.237C62.4435 138.149 60.9263 140.42 59.8911 142.918C58.856 145.417 58.3232 148.095 58.3232 150.8C58.3232 153.504 58.856 156.182 59.8911 158.681C60.9263 161.179 62.4435 163.45 64.3561 165.362L94.3006 195.304L66.3666 223.187Z" fill="url(#paint1_linear_7_126)"/>
<path d="M323.789 204.42C322.772 203.319 321.938 202.062 321.317 200.696C320.762 199.455 321.237 198.087 322.759 196.559L336.563 182.905C337.01 182.414 337.578 182.049 338.209 181.849C338.841 181.647 339.515 181.617 340.161 181.76C341.508 182.215 342.741 182.96 343.775 183.94C345.835 186.009 348.133 188.13 350.669 190.305C353.249 192.469 356.005 194.412 358.91 196.113C361.934 197.864 365.153 199.251 368.499 200.251C372.041 201.314 375.722 201.85 379.419 201.842C383.123 201.933 386.814 201.395 390.339 200.251C393.3 199.269 396.059 197.76 398.485 195.795C400.644 194.075 402.402 191.903 403.636 189.43C404.782 187.083 405.38 184.502 405.38 181.887C405.464 178.816 404.402 175.824 402.4 173.501C400.313 171.157 397.836 169.198 395.078 167.708C392.095 166.087 388.957 164.769 385.711 163.778C382.34 162.716 379.281 161.857 376.535 161.2C359.914 156.235 347.235 150.129 338.497 142.884C334.275 139.48 330.896 135.139 328.626 130.201C326.358 125.265 325.262 119.866 325.422 114.431C325.349 108.4 326.724 102.439 329.431 97.0541C332.165 91.755 336.036 87.129 340.763 83.512C346.044 79.5066 352.021 76.5229 358.388 74.7118C365.748 72.5467 373.382 71.4745 381.052 71.5292C390.125 71.5233 399.065 73.7065 407.123 77.8946C415.14 81.9636 422.471 87.2691 428.852 93.6168C431.34 96.2425 431.261 98.9318 428.646 101.685L417.33 113.842C416.861 114.396 416.239 114.8 415.544 115.004C414.848 115.208 414.108 115.201 413.415 114.988C411.995 114.399 410.675 113.594 409.5 112.601C407.916 111.233 405.966 109.705 403.842 108.05C401.617 106.339 399.276 104.786 396.837 103.403C394.274 101.951 391.585 100.736 388.802 99.7752C385.979 98.8141 383.018 98.3255 380.037 98.3271C377.316 98.3351 374.598 98.5419 371.907 98.9477C369.25 99.3106 366.673 100.117 364.283 101.335C362.017 102.5 360.069 104.205 358.609 106.3C356.977 108.849 356.183 111.85 356.343 114.877C356.284 117.329 357.043 119.732 358.498 121.704C360.167 123.833 362.283 125.566 364.695 126.78C367.748 128.39 370.929 129.741 374.205 130.822C377.834 132.063 381.86 133.304 386.25 134.545C392.957 136.509 399.56 138.82 406.03 141.468C411.859 143.796 417.323 146.951 422.259 150.841C426.801 154.464 430.575 158.966 433.353 164.08C436.234 169.776 437.651 176.106 437.474 182.492C437.561 189.309 435.925 196.039 432.719 202.049C429.579 207.878 425.261 212.985 420.04 217.039C414.545 221.298 408.336 224.531 401.703 226.587C384.381 232.047 365.643 230.717 349.258 222.863C339.657 218.432 331.007 212.168 323.789 204.42Z" fill="#1D1A27"/>
<path d="M449.908 177.32C449.871 170.323 451.226 163.388 453.894 156.922C456.561 150.459 460.487 144.593 465.44 139.669C470.332 134.824 476.098 130.957 482.43 128.276C492.21 124.124 503 122.991 513.424 125.02C523.848 127.049 533.433 132.149 540.96 139.669C545.806 144.545 549.683 150.303 552.387 156.633C555.218 163.157 556.658 170.204 556.619 177.32C556.663 184.406 555.221 191.422 552.387 197.912C549.677 204.178 545.799 209.865 540.96 214.668C536.094 219.463 530.366 223.285 524.081 225.935C510.745 231.452 495.781 231.452 482.445 225.935C476.126 223.279 470.357 219.456 465.44 214.668C460.474 209.816 456.536 204.006 453.862 197.588C451.187 191.171 449.831 184.277 449.876 177.32H449.908ZM477.31 177.527C477.242 184.613 479.9 191.454 484.728 196.623C487.053 199.099 489.856 201.069 492.969 202.415C496.234 203.779 499.735 204.48 503.271 204.48C506.807 204.48 510.308 203.779 513.573 202.415C516.684 201.069 519.489 199.099 521.814 196.623C524.162 194.113 526.046 191.203 527.377 188.029C530.124 181.338 530.124 173.827 527.377 167.136C526.041 163.969 524.158 161.066 521.814 158.558C519.473 156.074 516.674 154.069 513.573 152.655C510.324 151.23 506.816 150.495 503.271 150.495C499.726 150.495 496.218 151.23 492.969 152.655C489.868 154.069 487.069 156.074 484.728 158.558C479.892 163.724 477.234 170.566 477.31 177.654V177.527Z" fill="#1D1A27"/>
<path d="M587.207 126.207C588.824 126.097 590.437 126.463 591.851 127.257C592.905 127.968 593.726 128.976 594.212 130.153C594.799 131.507 595.214 132.928 595.449 134.386C595.734 135.977 596.067 137.664 596.479 139.462C600.164 135.462 604.486 132.106 609.269 129.533C614.811 126.449 621.064 124.88 627.4 124.981C633.255 124.894 639.067 125.976 644.501 128.164C649.232 130.085 653.511 132.973 657.07 136.646C660.566 140.344 663.235 144.75 664.899 149.567C666.703 154.834 667.593 160.372 667.53 165.942V222.831C667.619 223.538 667.554 224.254 667.34 224.932C667.127 225.611 666.769 226.235 666.294 226.762C665.217 227.534 663.904 227.9 662.585 227.796H643.756C641.553 227.796 640.222 227.494 639.731 226.873C639.13 225.691 638.883 224.359 639.018 223.038V170.7C639.13 168.189 638.71 165.681 637.786 163.345C636.864 161.007 635.456 158.894 633.661 157.142C630.036 153.749 625.223 151.93 620.268 152.081C617.894 152.115 615.547 152.607 613.358 153.53C610.963 154.488 608.713 155.772 606.67 157.349C604.608 158.937 602.83 160.862 601.408 163.046C600.004 165.172 599.054 167.567 598.618 170.079V223.245C598.698 223.888 598.649 224.539 598.474 225.163C598.301 225.785 598.005 226.367 597.604 226.873C596.365 227.634 594.91 227.959 593.468 227.796H574.924C574.216 227.911 573.49 227.884 572.791 227.718C572.092 227.551 571.433 227.249 570.851 226.826C570.13 225.804 569.799 224.556 569.916 223.309V132.429C569.916 128.271 571.976 126.196 576.097 126.207H587.207Z" fill="#1D1A27"/>
<path d="M709.933 132.015C710.076 132.699 710.425 134.052 710.964 136.041C711.502 138.03 711.867 139.383 711.994 140.083C713.366 138.27 714.848 136.542 716.431 134.911C718.2 133.068 720.173 131.434 722.311 130.042C724.54 128.576 726.92 127.359 729.412 126.413C732.085 125.43 734.916 124.938 737.764 124.965H739.714C740.374 124.973 741.032 125.048 741.679 125.188C743.939 125.413 746.158 125.949 748.272 126.78C750.678 127.675 753.019 128.738 755.277 129.962C757.258 131.001 759.124 132.249 760.84 133.686C761.449 134.1 761.964 134.636 762.355 135.26C762.745 135.885 763 136.585 763.107 137.314C763.031 138.355 762.674 139.356 762.077 140.21L753.835 153.657C753.428 154.476 752.814 155.175 752.055 155.683C751.296 156.192 750.418 156.491 749.508 156.553C748.644 156.47 747.806 156.222 747.036 155.821C745.926 155.344 744.769 154.755 743.533 154.071C741.977 152.895 740.278 151.922 738.477 151.174C736.862 150.59 735.154 150.31 733.437 150.347C730.738 150.28 728.058 150.816 725.592 151.918C723.124 153.019 720.933 154.656 719.173 156.712C717.523 158.636 716.23 160.84 715.354 163.221C714.488 165.504 714.032 167.923 714.007 170.366V222.704C714.007 226.152 712.152 227.876 708.444 227.876H691.422C687.86 227.876 686.076 226.152 686.065 222.704V132.015C686.005 131.265 686.116 130.51 686.39 129.809C686.665 129.109 687.097 128.481 687.65 127.973C688.691 127.101 690.003 126.622 691.358 126.62H704.545C705.231 126.56 705.923 126.673 706.554 126.951C707.187 127.23 707.738 127.663 708.158 128.212C708.941 129.38 709.54 130.664 709.933 132.015Z" fill="#1D1A27"/>
<rect x="787" y="16" width="272" height="118" rx="59" fill="#1D1A27"/>
<path d="M834.987 100V53.92H849.899C850.261 53.92 851.008 53.9307 852.139 53.952C853.269 53.9733 854.357 54.048 855.403 54.176C859.115 54.624 862.261 55.9147 864.843 58.048C867.424 60.1813 869.387 62.8907 870.731 66.176C872.075 69.4613 872.747 73.056 872.747 76.96C872.747 80.864 872.075 84.4587 870.731 87.744C869.387 91.0293 867.424 93.7387 864.843 95.872C862.261 98.0053 859.115 99.296 855.403 99.744C854.357 99.872 853.269 99.9467 852.139 99.968C851.008 99.9893 850.261 100 849.899 100H834.987ZM843.819 91.808H849.899C850.475 91.808 851.253 91.7973 852.235 91.776C853.216 91.7333 854.101 91.6373 854.891 91.488C856.896 91.0827 858.528 90.144 859.787 88.672C861.067 87.2 862.005 85.4293 862.603 83.36C863.221 81.2907 863.531 79.1573 863.531 76.96C863.531 74.656 863.211 72.4693 862.571 70.4C861.952 68.3307 861.003 66.5813 859.723 65.152C858.443 63.7227 856.832 62.816 854.891 62.432C854.101 62.2613 853.216 62.1653 852.235 62.144C851.253 62.1227 850.475 62.112 849.899 62.112H843.819V91.808ZM900.008 100.96C895.4 100.96 891.422 99.9573 888.072 97.952C884.744 95.9467 882.174 93.1413 880.36 89.536C878.568 85.9307 877.672 81.7387 877.672 76.96C877.672 72.1813 878.568 67.9893 880.36 64.384C882.174 60.7787 884.744 57.9733 888.072 55.968C891.422 53.9627 895.4 52.96 900.008 52.96C904.616 52.96 908.584 53.9627 911.912 55.968C915.262 57.9733 917.832 60.7787 919.624 64.384C921.438 67.9893 922.344 72.1813 922.344 76.96C922.344 81.7387 921.438 85.9307 919.624 89.536C917.832 93.1413 915.262 95.9467 911.912 97.952C908.584 99.9573 904.616 100.96 900.008 100.96ZM900.008 92.768C902.931 92.8107 905.363 92.1813 907.304 90.88C909.246 89.5787 910.696 87.7333 911.656 85.344C912.638 82.9547 913.128 80.16 913.128 76.96C913.128 73.76 912.638 70.9867 911.656 68.64C910.696 66.2933 909.246 64.4693 907.304 63.168C905.363 61.8667 902.931 61.1947 900.008 61.152C897.086 61.1093 894.654 61.7387 892.712 63.04C890.771 64.3413 889.31 66.1867 888.328 68.576C887.368 70.9653 886.888 73.76 886.888 76.96C886.888 80.16 887.368 82.9333 888.328 85.28C889.31 87.6267 890.771 89.4507 892.712 90.752C894.654 92.0533 897.086 92.7253 900.008 92.768ZM948.316 100.96C943.708 100.96 939.73 99.9573 936.38 97.952C933.052 95.9467 930.482 93.1413 928.668 89.536C926.876 85.9307 925.98 81.7387 925.98 76.96C925.98 72.1813 926.876 67.9893 928.668 64.384C930.482 60.7787 933.052 57.9733 936.38 55.968C939.73 53.9627 943.708 52.96 948.316 52.96C953.607 52.96 958.044 54.272 961.628 56.896C965.234 59.52 967.772 63.072 969.244 67.552L960.476 69.984C959.623 67.1893 958.183 65.024 956.156 63.488C954.13 61.9307 951.516 61.152 948.316 61.152C945.394 61.152 942.951 61.8027 940.988 63.104C939.047 64.4053 937.586 66.24 936.604 68.608C935.623 70.976 935.132 73.76 935.132 76.96C935.132 80.16 935.623 82.944 936.604 85.312C937.586 87.68 939.047 89.5147 940.988 90.816C942.951 92.1173 945.394 92.768 948.316 92.768C951.516 92.768 954.13 91.9893 956.156 90.432C958.183 88.8747 959.623 86.7093 960.476 83.936L969.244 86.368C967.772 90.848 965.234 94.4 961.628 97.024C958.044 99.648 953.607 100.96 948.316 100.96ZM995.444 100.96C992.03 100.96 988.948 100.363 986.196 99.168C983.465 97.952 981.214 96.224 979.444 93.984C977.694 91.7227 976.585 89.0347 976.116 85.92L985.204 84.576C985.844 87.2213 987.166 89.2587 989.172 90.688C991.177 92.1173 993.46 92.832 996.02 92.832C997.449 92.832 998.836 92.608 1000.18 92.16C1001.52 91.712 1002.62 91.0507 1003.48 90.176C1004.35 89.3013 1004.79 88.224 1004.79 86.944C1004.79 86.4747 1004.71 86.0267 1004.56 85.6C1004.44 85.152 1004.21 84.736 1003.89 84.352C1003.57 83.968 1003.11 83.6053 1002.52 83.264C1001.94 82.9227 1001.2 82.6133 1000.31 82.336L988.34 78.816C987.444 78.56 986.398 78.1973 985.204 77.728C984.03 77.2587 982.889 76.5867 981.78 75.712C980.67 74.8373 979.742 73.6853 978.996 72.256C978.27 70.8053 977.908 68.9813 977.908 66.784C977.908 63.6907 978.686 61.12 980.244 59.072C981.801 57.024 983.881 55.4987 986.484 54.496C989.086 53.4933 991.966 53.0027 995.124 53.024C998.302 53.0667 1001.14 53.6107 1003.64 54.656C1006.13 55.7013 1008.22 57.2267 1009.91 59.232C1011.59 61.216 1012.81 63.648 1013.56 66.528L1004.15 68.128C1003.81 66.6347 1003.18 65.376 1002.26 64.352C1001.34 63.328 1000.24 62.5493 998.964 62.016C997.705 61.4827 996.382 61.1947 994.996 61.152C993.63 61.1093 992.34 61.3013 991.124 61.728C989.929 62.1333 988.948 62.7307 988.18 63.52C987.433 64.3093 987.06 65.248 987.06 66.336C987.06 67.3387 987.369 68.16 987.988 68.8C988.606 69.4187 989.385 69.92 990.324 70.304C991.262 70.688 992.222 71.008 993.204 71.264L1001.2 73.44C1002.4 73.76 1003.72 74.1867 1005.17 74.72C1006.62 75.232 1008.01 75.9573 1009.33 76.896C1010.68 77.8133 1011.77 79.0293 1012.63 80.544C1013.5 82.0587 1013.94 83.9787 1013.94 86.304C1013.94 88.7787 1013.42 90.944 1012.37 92.8C1011.35 94.6347 1009.96 96.16 1008.21 97.376C1006.46 98.5707 1004.48 99.4667 1002.26 100.064C1000.06 100.661 997.79 100.96 995.444 100.96Z" fill="white"/>
<rect x="787" y="16" width="272" height="118" rx="59" stroke="white" stroke-width="8"/>
<defs>
<linearGradient id="paint0_linear_7_126" x1="254.612" y1="171.237" x2="189.207" y2="103.117" gradientUnits="userSpaceOnUse">
<stop offset="0.578893" stop-color="#1792FF"/>
<stop offset="1" stop-color="#1792FF" stop-opacity="0"/>
</linearGradient>
<linearGradient id="paint1_linear_7_126" x1="5.2749" y1="157.612" x2="69.2766" y2="224.409" gradientUnits="userSpaceOnUse">
<stop offset="0.507567" stop-color="#1792FF"/>
<stop offset="1" stop-color="#1792FF" stop-opacity="0"/>
</linearGradient>
</defs>
</svg>

<svg xmlns="http://www.w3.org/2000/svg" width="1063" height="302" fill="none"><path fill="#1792FF" d="m130.819 112.028-30.755 30.753c-4.417 4.417-4.417 11.578 0 15.995l30.755 30.753c4.417 4.417 11.579 4.417 15.996 0l30.756-30.753c4.417-4.417 4.417-11.578 0-15.995l-30.756-30.753c-4.417-4.417-11.579-4.417-15.996 0"/><path fill="url(#a)" d="M138.809 270.699a59.63 59.63 0 0 1-42.498-17.586l-6.538-6.538 27.885-27.882 6.538 6.537a20.61 20.61 0 0 0 29.144 0l59.872-59.868a20.623 20.623 0 0 0 0-29.125l-29.895-29.86 27.885-27.883 29.944 29.942a60.094 60.094 0 0 1 0 84.891l-59.889 59.868a59.6 59.6 0 0 1-42.448 17.504"/><path fill="url(#b)" d="m66.367 223.187-29.88-29.942a60.01 60.01 0 0 1 0-84.891L96.36 48.486A60.02 60.02 0 0 1 138.81 30.9a60.03 60.03 0 0 1 42.448 17.586l6.538 6.538-27.885 27.883-6.538-6.538a20.61 20.61 0 0 0-29.143 0l-59.873 59.868a20.6 20.6 0 0 0-6.033 14.563 20.6 20.6 0 0 0 6.033 14.562l29.945 29.942z"/><path fill="#1D1A27" d="M323.789 204.42a14 14 0 0 1-2.472-3.724c-.555-1.241-.08-2.609 1.442-4.137l13.804-13.654a3.77 3.77 0 0 1 3.598-1.145 9.8 9.8 0 0 1 3.614 2.18q3.09 3.103 6.894 6.365a60 60 0 0 0 8.241 5.808 44.7 44.7 0 0 0 9.589 4.138 37.7 37.7 0 0 0 10.92 1.591 32.8 32.8 0 0 0 10.92-1.591 25.9 25.9 0 0 0 8.146-4.456 19 19 0 0 0 5.151-6.365 17.2 17.2 0 0 0 1.744-7.543 12.33 12.33 0 0 0-2.98-8.386 27 27 0 0 0-7.322-5.793 50.5 50.5 0 0 0-9.367-3.93q-5.057-1.593-9.176-2.578-24.931-7.448-38.038-18.316a35.15 35.15 0 0 1-9.871-12.683 35.3 35.3 0 0 1-3.204-15.77 37.7 37.7 0 0 1 4.009-17.377 40.3 40.3 0 0 1 11.332-13.542 53.3 53.3 0 0 1 17.625-8.8 78.3 78.3 0 0 1 22.664-3.183 56.45 56.45 0 0 1 26.071 6.366 86 86 0 0 1 21.729 15.722c2.488 2.626 2.409 5.315-.206 8.068l-11.316 12.157a3.7 3.7 0 0 1-3.915 1.146 15 15 0 0 1-3.915-2.387c-1.584-1.368-3.534-2.896-5.658-4.551a60 60 0 0 0-7.005-4.647 48 48 0 0 0-8.035-3.628 27.2 27.2 0 0 0-8.765-1.448 55.6 55.6 0 0 0-8.13.62 23.9 23.9 0 0 0-7.624 2.388 15.6 15.6 0 0 0-5.674 4.965 14.5 14.5 0 0 0-2.266 8.577c-.059 2.452.7 4.855 2.155 6.827a18.4 18.4 0 0 0 6.197 5.076 62 62 0 0 0 9.51 4.042c3.629 1.241 7.655 2.482 12.045 3.723a202 202 0 0 1 19.78 6.923 65.4 65.4 0 0 1 16.229 9.373 43.5 43.5 0 0 1 11.094 13.239 38.44 38.44 0 0 1 4.121 18.412 40.46 40.46 0 0 1-4.755 19.557 47.5 47.5 0 0 1-12.679 14.99 57.9 57.9 0 0 1-18.337 9.548 71.54 71.54 0 0 1-52.445-3.724 81.5 81.5 0 0 1-25.469-18.443m126.119-27.1a52.8 52.8 0 0 1 3.986-20.398 52.65 52.65 0 0 1 11.546-17.253 54.2 54.2 0 0 1 16.99-11.393 53.26 53.26 0 0 1 30.994-3.256 53.4 53.4 0 0 1 27.536 14.649 54.4 54.4 0 0 1 11.427 16.964 51.3 51.3 0 0 1 4.232 20.687 50.7 50.7 0 0 1-4.232 20.592 53.6 53.6 0 0 1-11.427 16.756 53.9 53.9 0 0 1-16.879 11.267 54.44 54.44 0 0 1-41.636 0 54.8 54.8 0 0 1-17.005-11.267 51.65 51.65 0 0 1-11.578-17.08 51.8 51.8 0 0 1-3.986-20.268zm27.402.207a27.6 27.6 0 0 0 7.418 19.096 24.8 24.8 0 0 0 8.241 5.792 26.72 26.72 0 0 0 20.604 0 24.8 24.8 0 0 0 8.241-5.792 29 29 0 0 0 5.563-8.594 27.52 27.52 0 0 0 0-20.893 29.2 29.2 0 0 0-5.563-8.578 26.4 26.4 0 0 0-8.241-5.903 25.65 25.65 0 0 0-20.604 0 26.4 26.4 0 0 0-8.241 5.903 27.5 27.5 0 0 0-7.418 19.096zm109.897-51.32a8.33 8.33 0 0 1 4.644 1.05 6.47 6.47 0 0 1 2.361 2.896 17.7 17.7 0 0 1 1.237 4.233 107 107 0 0 0 1.03 5.076c3.685-4 8.007-7.356 12.79-9.929a36.1 36.1 0 0 1 18.131-4.552 44 44 0 0 1 17.101 3.183 36.8 36.8 0 0 1 12.569 8.482 35.8 35.8 0 0 1 7.829 12.921 48.8 48.8 0 0 1 2.631 16.375v56.889a4.95 4.95 0 0 1-1.236 3.931 5.6 5.6 0 0 1-3.709 1.034h-18.829c-2.203 0-3.534-.302-4.025-.923a6.9 6.9 0 0 1-.713-3.835V170.7a17.84 17.84 0 0 0-5.357-13.558 18.76 18.76 0 0 0-13.393-5.061 18.5 18.5 0 0 0-6.91 1.449 28 28 0 0 0-6.688 3.819 23.1 23.1 0 0 0-5.262 5.697 18.5 18.5 0 0 0-2.79 7.033v53.166a4.87 4.87 0 0 1-1.014 3.628 6.5 6.5 0 0 1-4.136.923h-18.544a5.45 5.45 0 0 1-4.073-.97 5.25 5.25 0 0 1-.935-3.517v-90.88q0-6.238 6.181-6.222zm122.726 5.808c.143.684.492 2.037 1.031 4.026s.903 3.342 1.03 4.042a56 56 0 0 1 4.437-5.172 33.5 33.5 0 0 1 5.88-4.869 36.5 36.5 0 0 1 7.101-3.629 23.6 23.6 0 0 1 8.352-1.448h1.95c.66.008 1.318.083 1.965.223 2.26.225 4.479.761 6.593 1.592a55 55 0 0 1 7.005 3.182 31.3 31.3 0 0 1 5.563 3.724 5.3 5.3 0 0 1 2.267 3.628 5.8 5.8 0 0 1-1.03 2.896l-8.242 13.447a5.25 5.25 0 0 1-1.78 2.026 5.2 5.2 0 0 1-2.547.87 6.7 6.7 0 0 1-2.472-.732c-1.11-.477-2.267-1.066-3.503-1.75a23 23 0 0 0-5.056-2.897 13.9 13.9 0 0 0-5.04-.827 18.1 18.1 0 0 0-7.845 1.571 18.2 18.2 0 0 0-6.419 4.794 21.3 21.3 0 0 0-3.819 6.509 20.8 20.8 0 0 0-1.347 7.145v52.338q0 5.172-5.563 5.172h-17.022q-5.342 0-5.357-5.172v-90.689c-.06-.75.051-1.505.325-2.206.275-.7.707-1.328 1.26-1.836a5.8 5.8 0 0 1 3.708-1.353h13.187a4.1 4.1 0 0 1 3.613 1.592 13.7 13.7 0 0 1 1.775 3.803"/><rect width="272" height="118" x="787" y="16" fill="#1D1A27" rx="59"/><path fill="#fff" d="M834.987 100V53.92h14.912q.543 0 2.24.032 1.695.032 3.264.224 5.567.672 9.44 3.872t5.888 8.128 2.016 10.784-2.016 10.784-5.888 8.128-9.44 3.872a32 32 0 0 1-3.264.224q-1.697.032-2.24.032zm8.832-8.192h6.08q.864 0 2.336-.032a19 19 0 0 0 2.656-.288q3.008-.608 4.896-2.816 1.92-2.208 2.816-5.312.928-3.105.928-6.4 0-3.456-.96-6.56-.928-3.105-2.848-5.248-1.92-2.145-4.832-2.72-1.185-.256-2.656-.288t-2.336-.032h-6.08zm56.189 9.152q-6.911 0-11.936-3.008-4.992-3.007-7.712-8.416-2.688-5.407-2.688-12.576 0-7.168 2.688-12.576 2.72-5.407 7.712-8.416 5.024-3.008 11.936-3.008t11.904 3.008q5.024 3.007 7.712 8.416 2.72 5.408 2.72 12.576t-2.72 12.576q-2.687 5.407-7.712 8.416-4.992 3.008-11.904 3.008m0-8.192q4.384.064 7.296-1.888t4.352-5.536q1.473-3.585 1.472-8.384 0-4.8-1.472-8.32-1.44-3.52-4.352-5.472t-7.296-2.016-7.296 1.888-4.384 5.536q-1.44 3.584-1.44 8.384t1.44 8.32q1.473 3.52 4.384 5.472 2.913 1.951 7.296 2.016m48.308 8.192q-6.911 0-11.936-3.008-4.992-3.007-7.712-8.416-2.688-5.407-2.688-12.576 0-7.168 2.688-12.576 2.72-5.407 7.712-8.416 5.024-3.008 11.936-3.008 7.936 0 13.312 3.936 5.409 3.936 7.616 10.656l-8.768 2.432q-1.28-4.192-4.32-6.496-3.04-2.336-7.84-2.336-4.383 0-7.328 1.952-2.911 1.952-4.384 5.504-1.472 3.552-1.472 8.352t1.472 8.352 4.384 5.504q2.945 1.952 7.328 1.952 4.8 0 7.84-2.336t4.32-6.496l8.768 2.432q-2.207 6.72-7.616 10.656-5.376 3.936-13.312 3.936m47.128 0q-5.12 0-9.248-1.792-4.097-1.824-6.752-5.184-2.625-3.392-3.328-8.064l9.088-1.344q.96 3.968 3.968 6.112t6.848 2.144a13 13 0 0 0 4.16-.672q2.01-.672 3.3-1.984c.87-.875 1.31-1.952 1.31-3.232 0-.47-.08-.917-.23-1.344a3.3 3.3 0 0 0-.67-1.248c-.32-.384-.78-.747-1.37-1.088-.58-.341-1.32-.65-2.21-.928l-11.97-3.52a35 35 0 0 1-3.136-1.088q-1.76-.704-3.424-2.016-1.665-1.312-2.784-3.456-1.088-2.176-1.088-5.472 0-4.64 2.336-7.712t6.24-4.576 8.64-1.472q4.766.065 8.516 1.632 3.735 1.567 6.27 4.576c1.68 1.984 2.9 4.416 3.65 7.296l-9.41 1.6q-.51-2.24-1.89-3.776a9.1 9.1 0 0 0-3.296-2.336 11 11 0 0 0-3.968-.864 10.6 10.6 0 0 0-3.872.576q-1.792.608-2.944 1.792a3.96 3.96 0 0 0-1.12 2.816q0 1.504.928 2.464.927.928 2.336 1.504 1.407.576 2.88.96l7.996 2.176c1.2.32 2.52.747 3.97 1.28a16.8 16.8 0 0 1 4.16 2.176c1.35.917 2.44 2.133 3.3 3.648.87 1.515 1.31 3.435 1.31 5.76 0 2.475-.52 4.64-1.57 6.496a13.5 13.5 0 0 1-4.16 4.576c-1.75 1.195-3.73 2.09-5.95 2.688a26 26 0 0 1-6.816.896"/><rect width="272" height="118" x="787" y="16" stroke="#fff" stroke-width="8" rx="59"/><defs><linearGradient id="a" x1="254.612" x2="189.207" y1="171.237" y2="103.117" gradientUnits="userSpaceOnUse"><stop offset=".579" stop-color="#1792FF"/><stop offset="1" stop-color="#1792FF" stop-opacity="0"/></linearGradient><linearGradient id="b" x1="5.275" x2="69.277" y1="157.612" y2="224.409" gradientUnits="userSpaceOnUse"><stop offset=".508" stop-color="#1792FF"/><stop offset="1" stop-color="#1792FF" stop-opacity="0"/></linearGradient></defs></svg>
